X:1
%
T:Baltyoran
M:9/8
L:1/8
S:Joyce - Old Irish Folk Music and Songs (1909), No. 697
Z:AK/Fiddler's Companion
K:Cmix
E2E F2F GEC | E2E ~F3 G2c |E2E F2F GEC|
D2D ~B3 F2D|E2E F2F GEC | E2E ~F3 G2c |
E2E F2F GEC |D2D ~B3 F2D::E2c E2c GEC|
E2c E2c F2D|E2c E2c GEC|D2D ~B3 F2D |
EGc EGc GEC | EGc EGc F2D | EGc EGc GEC | D2D ~B3 F2D:||

